Origami/32x32/apps/warzone2100.svg

<svg width="32" height="32" version="1" xmlns="http://www.w3.org/2000/svg">
 <path d="m8 17 3-6h9.612l3.388 6z" style="fill:#3f3f3f"/>
 <rect x="7" y="6" width="18" height="9" rx="1.5" ry="1.5" style="opacity:.2"/>
 <rect x="4" y="17" width="24" height="9" rx="1.5" ry="1.5" style="opacity:.2"/>
 <rect x="4" y="16" width="24" height="9" rx="1.5" ry="1.5" style="fill:#8e8e8e"/>
 <path d="m5.5 16c-0.831 0-1.5 0.669-1.5 1.5v4c0-0.831 0.669-1.5 1.5-1.5h21c0.831 0 1.5 0.669 1.5 1.5v-4c0-0.831-0.669-1.5-1.5-1.5h-21z" style="fill:#ffffff;opacity:.1"/>
 <rect x="23" y="18" width="7" height="11" rx=".75" ry=".75" style="opacity:.2"/>
 <rect x="2" y="18" width="7" height="11" rx=".75" ry=".75" style="opacity:.2"/>
 <path d="m5.5 16c-0.831 0-1.5 0.669-1.5 1.5v1c0-0.831 0.669-1.5 1.5-1.5h21c0.831 0 1.5 0.669 1.5 1.5v-1c0-0.831-0.669-1.5-1.5-1.5h-21z" style="fill:#ffffff;opacity:.2"/>
 <rect x="2" y="17" width="7" height="11" rx=".75" ry=".75" style="fill:#4f4f4f"/>
 <rect x="7" y="5" width="18" height="9" rx="1.5" ry="1.5" style="fill:#8e8e8e"/>
 <rect x="23" y="17" width="7" height="11" rx=".75" ry=".75" style="fill:#4f4f4f"/>
 <g style="fill:#3f3f3f">
  <rect x="8" y="6" width="3" height="3" rx=".75" ry=".75" style="fill:#3f3f3f"/>
  <rect x="12" y="6" width="3" height="3" rx=".75" ry=".75" style="fill:#3f3f3f"/>
  <rect x="17" y="6" width="3" height="3" rx=".75" ry=".75" style="fill:#3f3f3f"/>
  <rect x="21" y="6" width="3" height="3" rx=".75" ry=".75" style="fill:#3f3f3f"/>
  <rect x="21" y="10" width="3" height="3" rx=".75" ry=".75" style="fill:#3f3f3f"/>
  <rect x="17" y="10" width="3" height="3" rx=".75" ry=".75" style="fill:#3f3f3f"/>
  <rect x="12" y="10" width="3" height="3" rx=".75" ry=".75" style="fill:#3f3f3f"/>
  <rect x="8" y="10" width="3" height="3" rx=".75" ry=".75" style="fill:#3f3f3f"/>
 </g>
 <path d="m8.5 5c-0.8312 0-1.5 0.669-1.5 1.5v1c0-0.831 0.6688-1.5 1.5-1.5h15c0.831 0 1.5 0.669 1.5 1.5v-1c0-0.831-0.669-1.5-1.5-1.5h-15z" style="fill:#ffffff;opacity:.2"/>
 <path d="m23.75 17c-0.4155 0-0.75 0.3345-0.75 0.75v2.25h7v-2.25c0-0.4155-0.3345-0.75-0.75-0.75z" style="fill:#3f3f3f"/>
 <path d="m23 24v3h7v-3z" style="fill:#3f3f3f"/>
 <path d="m2.75 28c-0.4155 0-0.75-0.3345-0.75-0.75v-2.25h7v2.25c0 0.4155-0.3345 0.75-0.75 0.75z" style="fill:#3f3f3f"/>
 <path d="m2 22v-3h7v3z" style="fill:#3f3f3f"/>
</svg>

<svg xmlns="http://www.w3.org/2000/svg" width="32" height="32" version="1">
 <path style="fill:#3f3f3f" d="M 8,17 11,11 H 20.612 L 24,17 Z"/>
 <rect style="opacity:0.2" width="18" height="9" x="7" y="6" rx="1.5" ry="1.5"/>
 <rect style="opacity:0.2" width="24" height="9" x="4" y="17" rx="1.5" ry="1.5"/>
 <rect style="fill:#8e8e8e" width="24" height="9" x="4" y="16" rx="1.5" ry="1.5"/>
 <path style="fill:#ffffff;opacity:0.1" d="M 5.5 16 C 4.669 16 4 16.669 4 17.5 L 4 21.5 C 4 20.669 4.669 20 5.5 20 L 26.5 20 C 27.331 20 28 20.669 28 21.5 L 28 17.5 C 28 16.669 27.331 16 26.5 16 L 5.5 16 z"/>
 <rect style="opacity:0.2" width="7" height="11" x="23" y="18" rx=".75" ry=".75"/>
 <rect style="opacity:0.2" width="7" height="11" x="2" y="18" rx=".75" ry=".75"/>
 <path style="fill:#ffffff;opacity:0.2" d="M 5.5 16 C 4.669 16 4 16.669 4 17.5 L 4 18.5 C 4 17.669 4.669 17 5.5 17 L 26.5 17 C 27.331 17 28 17.669 28 18.5 L 28 17.5 C 28 16.669 27.331 16 26.5 16 L 5.5 16 z"/>
 <rect style="fill:#4f4f4f" width="7" height="11" x="2" y="17" rx=".75" ry=".75"/>
 <rect style="fill:#8e8e8e" width="18" height="9" x="7" y="5" rx="1.5" ry="1.5"/>
 <rect style="fill:#4f4f4f" width="7" height="11" x="23" y="17" rx=".75" ry=".75"/>
 <g style="fill:#3f3f3f">
  <rect width="3" height="3" x="8" y="6" rx=".75" ry=".75" style="fill:#3f3f3f"/>
  <rect width="3" height="3" x="12" y="6" rx=".75" ry=".75" style="fill:#3f3f3f"/>
  <rect width="3" height="3" x="17" y="6" rx=".75" ry=".75" style="fill:#3f3f3f"/>
  <rect width="3" height="3" x="21" y="6" rx=".75" ry=".75" style="fill:#3f3f3f"/>
  <rect width="3" height="3" x="21" y="10" rx=".75" ry=".75" style="fill:#3f3f3f"/>
  <rect width="3" height="3" x="17" y="10" rx=".75" ry=".75" style="fill:#3f3f3f"/>
  <rect width="3" height="3" x="12" y="10" rx=".75" ry=".75" style="fill:#3f3f3f"/>
  <rect width="3" height="3" x="8" y="10" rx=".75" ry=".75" style="fill:#3f3f3f"/>
 </g>
 <path style="opacity:0.2;fill:#ffffff" d="M 8.5 5 C 7.6688 5 7 5.669 7 6.5 L 7 7.5 C 7 6.669 7.6688 6 8.5 6 L 23.5 6 C 24.331 6 25 6.669 25 7.5 L 25 6.5 C 25 5.669 24.331 5 23.5 5 L 8.5 5 z"/>
 <path style="fill:#3f3f3f" d="M 23.75,17 C 23.3345,17 23,17.3345 23,17.75 l 0,2.25 7,0 0,-2.25 C 30,17.3345 29.6655,17 29.25,17 Z"/>
 <path style="fill:#3f3f3f" d="m 23,24 0,3 7,0 0,-3 z"/>
 <path d="M 2.75,28 C 2.3345,28 2,27.6655 2,27.25 L 2,25 9,25 9,27.25 C 9,27.6655 8.6655,28 8.25,28 Z" style="fill:#3f3f3f"/>
 <path d="m 2,22 0,-3 7,0 0,3 z" style="fill:#3f3f3f"/>
</svg>
